humanity-icon-theme/Humanity/mimes/24/image-x-psd.svg

<?xml version="1.0" encoding="UTF-8" standalone="no"?>
<!-- Created with Inkscape (http://www.inkscape.org/) -->

<svg
   xmlns:svg="http://www.w3.org/2000/svg"
   xmlns="http://www.w3.org/2000/svg"
   xmlns:xlink="http://www.w3.org/1999/xlink"
   version="1.0"
   width="24"
   height="24"
   id="svg3386">
  <defs
     id="defs3388">
    <linearGradient
       id="linearGradient5048">
      <stop
         id="stop5050"
         style="stop-color:#000000;stop-opacity:0"
         offset="0" />
      <stop
         id="stop5056"
         style="stop-color:#000000;stop-opacity:1"
         offset="0.5" />
      <stop
         id="stop5052"
         style="stop-color:#000000;stop-opacity:0"
         offset="1" />
    </linearGradient>
    <linearGradient
       id="linearGradient5060">
      <stop
         id="stop5062"
         style="stop-color:#000000;stop-opacity:1"
         offset="0" />
      <stop
         id="stop5064"
         style="stop-color:#000000;stop-opacity:0"
         offset="1" />
    </linearGradient>
    <linearGradient
       id="linearGradient3104">
      <stop
         id="stop3106"
         style="stop-color:#aaaaaa;stop-opacity:1"
         offset="0" />
      <stop
         id="stop3108"
         style="stop-color:#c8c8c8;stop-opacity:1"
         offset="1" />
    </linearGradient>
    <linearGradient
       id="linearGradient3600">
      <stop
         id="stop3602"
         style="stop-color:#f4f4f4;stop-opacity:1"
         offset="0" />
      <stop
         id="stop3604"
         style="stop-color:#dbdbdb;stop-opacity:1"
         offset="1" />
    </linearGradient>
    <radialGradient
       cx="102"
       cy="112.3047"
       r="139.55859"
       id="XMLID_8_"
       gradientUnits="userSpaceOnUse">
      <stop
         id="stop41"
         style="stop-color:#b7b8b9;stop-opacity:1"
         offset="0" />
      <stop
         id="stop47"
         style="stop-color:#ececec;stop-opacity:1"
         offset="0.17402567" />
      <stop
         id="stop49"
         style="stop-color:#fafafa;stop-opacity:0"
         offset="0.23907544" />
      <stop
         id="stop51"
         style="stop-color:#ffffff;stop-opacity:0"
         offset="0.30111277" />
      <stop
         id="stop53"
         style="stop-color:#fafafa;stop-opacity:0"
         offset="0.53130001" />
      <stop
         id="stop55"
         style="stop-color:#ebecec;stop-opacity:0"
         offset="0.84490001" />
      <stop
         id="stop57"
         style="stop-color:#e1e2e3;stop-opacity:0"
         offset="1" />
    </radialGradient>
    <linearGradient
       id="linearGradient3211">
      <stop
         id="stop3213"
         style="stop-color:#ffffff;stop-opacity:1"
         offset="0" />
      <stop
         id="stop3215"
         style="stop-color:#ffffff;stop-opacity:0"
         offset="1" />
    </linearGradient>
    <linearGradient
       id="linearGradient8589">
      <stop
         id="stop8591"
         style="stop-color:#fefefe;stop-opacity:1"
         offset="0" />
      <stop
         id="stop8593"
         style="stop-color:#cbcbcb;stop-opacity:1"
         offset="1" />
    </linearGradient>
    <linearGradient
       x1="32.892288"
       y1="8.0590115"
       x2="36.358372"
       y2="5.4565363"
       id="linearGradient2425"
       xlink:href="#linearGradient8589"
       gradientUnits="userSpaceOnUse"
       gradientTransform="matrix(0.4778466,0,0,0.5524833,0.3722548,-0.0761283)" />
    <linearGradient
       x1="24"
       y1="1.9999999"
       x2="24"
       y2="46.01725"
       id="linearGradient2429"
       xlink:href="#linearGradient3211"
       gradientUnits="userSpaceOnUse"
       gradientTransform="matrix(0.4545444,0,0,0.4651153,1.0909345,0.3372293)" />
    <radialGradient
       cx="92.090363"
       cy="102.70267"
       r="139.55859"
       fx="92.090363"
       fy="102.70267"
       id="radialGradient2432"
       xlink:href="#XMLID_8_"
       gradientUnits="userSpaceOnUse"
       gradientTransform="matrix(0.1702128,0,0,-0.1907226,1.1063831,23.716504)" />
    <linearGradient
       x1="25.132275"
       y1="0.98520643"
       x2="25.132275"
       y2="47.013336"
       id="linearGradient2435"
       xlink:href="#linearGradient3600"
       gradientUnits="userSpaceOnUse"
       gradientTransform="matrix(0.4857154,0,0,0.4780255,0.3428305,-0.7059501)" />
    <linearGradient
       x1="-51.786404"
       y1="50.786446"
       x2="-51.786404"
       y2="2.9062471"
       id="linearGradient2438"
       xlink:href="#linearGradient3104"
       gradientUnits="userSpaceOnUse"
       gradientTransform="matrix(0.3922135,0,0,0.4473607,29.199293,-1.2386997)" />
    <radialGradient
       cx="605.71429"
       cy="486.64789"
       r="117.14286"
       fx="605.71429"
       fy="486.64789"
       id="radialGradient2441"
       xlink:href="#linearGradient5060"
       gradientUnits="userSpaceOnUse"
       gradientTransform="matrix(0.01204859,0,0,0.00823529,13.238794,18.980568)" />
    <radialGradient
       cx="605.71429"
       cy="486.64789"
       r="117.14286"
       fx="605.71429"
       fy="486.64789"
       id="radialGradient2444"
       xlink:href="#linearGradient5060"
       gradientUnits="userSpaceOnUse"
       gradientTransform="matrix(-0.01204859,0,0,0.00823529,10.761206,18.980568)" />
    <linearGradient
       x1="302.85715"
       y1="366.64789"
       x2="302.85715"
       y2="609.50507"
       id="linearGradient2447"
       xlink:href="#linearGradient5048"
       gradientUnits="userSpaceOnUse"
       gradientTransform="matrix(0.0352071,0,0,0.00823529,-0.724852,18.980551)" />
    <linearGradient
       x1="375.62509"
       y1="311.79102"
       x2="393.43311"
       y2="374.92462"
       id="linearGradient7060"
       xlink:href="#linearGradient7176"
       gradientUnits="userSpaceOnUse"
       gradientTransform="matrix(0.14454376,-0.0258744,0.02414305,0.15490929,-55.072724,-35.263332)" />
    <linearGradient
       id="linearGradient7176">
      <stop
         id="stop7178"
         style="stop-color:#204a87;stop-opacity:1"
         offset="0" />
      <stop
         id="stop7180"
         style="stop-color:#97bcd4;stop-opacity:1"
         offset="1" />
    </linearGradient>
    <linearGradient
       x1="13.112816"
       y1="7.2513928"
       x2="20.403833"
       y2="21.766705"
       id="linearGradient7062"
       xlink:href="#linearGradient7613"
       gradientUnits="userSpaceOnUse"
       gradientTransform="matrix(0.62911359,0,0,0.67422865,-3.0534855,-1.6707578)" />
    <linearGradient
       id="linearGradient7613">
      <stop
         id="stop7615"
         style="stop-color:#304456;stop-opacity:1"
         offset="0" />
      <stop
         id="stop7617"
         style="stop-color:#6394be;stop-opacity:1"
         offset="1" />
    </linearGradient>
    <radialGradient
       cx="416.65488"
       cy="392.0784"
       r="27.076788"
       fx="416.65488"
       fy="392.0784"
       id="radialGradient7065"
       xlink:href="#linearGradient7192"
       gradientUnits="userSpaceOnUse"
       gradientTransform="matrix(0.17992296,-0.19211484,0.2031471,0.18249679,-139.12999,25.083914)" />
    <linearGradient
       id="linearGradient7192">
      <stop
         id="stop7210"
         style="stop-color:#fce94f;stop-opacity:1"
         offset="0" />
      <stop
         id="stop8189"
         style="stop-color:#66d09a;stop-opacity:1"
         offset="0.5" />
      <stop
         id="stop8187"
         style="stop-color:#66c6d0;stop-opacity:1"
         offset="1" />
    </linearGradient>
    <linearGradient
       x1="32.027035"
       y1="21.986458"
       x2="27.560297"
       y2="15.298627"
       id="linearGradient7067"
       xlink:href="#linearGradient7605"
       gradientUnits="userSpaceOnUse"
       gradientTransform="matrix(0.68679991,0,0,0.67265216,-4.3832399,-1.6478847)" />
    <linearGradient
       id="linearGradient7605">
      <stop
         id="stop7607"
         style="stop-color:#bcae3e;stop-opacity:1"
         offset="0" />
      <stop
         id="stop7609"
         style="stop-color:#3b9a6a;stop-opacity:1"
         offset="0.5" />
      <stop
         id="stop7611"
         style="stop-color:#3d8891;stop-opacity:1"
         offset="1" />
    </linearGradient>
    <linearGradient
       id="linearGradient9162">
      <stop
         id="stop9170"
         style="stop-color:#8ae234;stop-opacity:1"
         offset="0" />
      <stop
         id="stop9166"
         style="stop-color:#4db07d;stop-opacity:0.88235295"
         offset="1" />
    </linearGradient>
    <radialGradient
       cx="416.80206"
       cy="399.14209"
       r="20.131355"
       fx="416.80206"
       fy="399.14209"
       id="radialGradient2907"
       xlink:href="#linearGradient9162"
       gradientUnits="userSpaceOnUse"
       gradientTransform="matrix(-0.24383917,-0.0411249,0.01853542,-0.1054198,111.07233,77.082896)" />
  </defs>
  <rect
     width="17"
     height="1.9999981"
     x="3.5000005"
     y="21.999998"
     id="rect2879"
     style="opacity:0.15;fill:url(#linearGradient2447);fill-opacity:1;fill-rule:nonzero;stroke:none;stroke-width:1;marker:none;visibility:visible;display:inline;overflow:visible" />
  <path
     d="m 3.5,22.000086 c 0,0 0,1.999889 0,1.999889 C 2.8795275,24.00374 2,23.551901 2,22.999901 2,22.447902 2.6924,22.000086 3.5,22.000086 z"
     id="path2881"
     style="opacity:0.15;fill:url(#radialGradient2444);fill-opacity:1;fill-rule:nonzero;stroke:none;stroke-width:1;marker:none;visibility:visible;display:inline;overflow:visible" />
  <path
     d="m 20.5,22.000086 c 0,0 0,1.999889 0,1.999889 0.620472,0.0038 1.5,-0.448074 1.5,-1.000074 0,-0.551999 -0.692401,-0.999815 -1.5,-0.999815 z"
     id="path2883"
     style="opacity:0.15;fill:url(#radialGradient2441);fill-opacity:1;fill-rule:nonzero;stroke:none;stroke-width:1;marker:none;visibility:visible;display:inline;overflow:visible" />
  <path
     d="m 3.4999617,0.49996097 c 3.8955799,0 7.6044553,0 11.5000383,0 C 15.683368,0.73725787 19.541325,3.628131 20.5,5.5 c 0,5.729157 3.9e-5,11.270881 3.9e-5,17.000039 -5.666693,0 -11.3333845,0 -17.0000773,0 0,-7.33336 0,-14.6667201 0,-22.00007803 z"
     id="path4160"
     style="fill:url(#linearGradient2435);fill-opacity:1;stroke:url(#linearGradient2438);stroke-width:0.99992162;stroke-linecap:butt;stroke-linejoin:round;stroke-miterlimit:4;stroke-opacity:1;stroke-dasharray:none;stroke-dashoffset:0;display:inline" />
  <path
     d="M 4.1702128,22 C 4.0764256,22 4,21.914366 4,21.809277 L 4,1.2112452 C 4,1.1059667 4.0764256,1.0205233 4.1702128,1.0205233 7.6916683,1.0732401 11.594065,0.94166522 15.11124,1.0336487 L 19.950127,5.3607855 20,21.809277 C 20,21.914366 19.923743,22 19.829786,22 L 4.1702128,22 z"
     id="path4191"
     style="fill:url(#radialGradient2432);fill-opacity:1" />
  <path
     d="m 19.500001,5.6770357 c 0,5.2083053 0,10.6146573 0,15.8229643 -5,0 -9.9999998,0 -15.000001,0 0,-6.66667 0,-13.3333343 0,-20.0000001 3.4372614,0 6.956499,0 10.393761,0"
     id="path2435"
     style="opacity:0.6;fill:none;stroke:url(#linearGradient2429);stroke-width:0.99999988;stroke-linecap:butt;stroke-linejoin:miter;stroke-miterlimit:4;stroke-opacity:1;stroke-dasharray:none;stroke-dashoffset:0;display:inline" />
  <path
     d="m 14.075474,1 c 1.156303,0.3287671 0.339059,4.6143789 0.339059,4.6143789 0,0 4.515388,-0.4277362 5.60771,1.1949961 C 21.511396,9.0216317 19.954018,6.1742029 19.848796,5.9876778 19.092868,4.6476323 15.982456,1.4405918 14.803387,1.0464703 14.715155,1.0169778 14.519511,1 14.075474,1 z"
     id="path3370"
     style="opacity:0.2;fill:#000000;fill-opacity:1;fill-rule:evenodd;stroke:none;display:inline" />
  <path
     d="m 14,1 c 1.526166,0 1,4 1,4 0,0 4.992074,-0.45326 4.992074,2 0,-0.5977419 0.05575,-1.4784338 -0.06407,-1.6559326 C 19.088897,4.1010616 16.184239,1.4821803 15.129935,1.0464703 15.043957,1.0109384 14.444037,1 14,1 z"
     id="path4474"
     style="fill:url(#linearGradient2425);fill-opacity:1;fill-rule:evenodd;stroke:none;display:inline" />
  <path
     d="m 11.254567,16.179776 c 1.023857,1.287178 2.339658,1.48531 3.938398,1.466311 -0.10967,0.247941 -0.219338,0.495881 -0.329007,0.743821 0.306377,-0.358423 0.534765,-0.747873 1.041334,-0.697997 -0.313393,0.44167 -0.364857,0.727461 -0.483454,1.053206 0.606224,-0.535793 1.556642,-0.719728 2.323279,-0.93454 -0.203948,-0.304872 -0.513907,-0.524982 -0.717855,-0.829855 0.354767,-0.592497 0.5061,-1.395297 0.535295,-2.106321 -0.137244,0.370438 -0.338696,0.667102 -0.529,0.928234 0.388049,-0.943883 -0.538009,-1.929317 -0.867624,-2.716993 0.03598,0.372938 -0.198727,0.836102 0.288372,1.38949 -0.305895,1.098472 -0.205694,1.319066 -0.881335,1.986756 -1.115067,0.271426 -2.823782,0.516569 -4.318403,-0.282112 z"
     id="path8191"
     style="fill:url(#radialGradient2907);fill-opacity:1;fill-rule:evenodd;stroke:#4b8748;stroke-width:0.50976694;stroke-linecap:butt;stroke-linejoin:miter;stroke-miterlimit:4;stroke-opacity:1;stroke-dasharray:none;display:inline" />
  <path
     d="m 6.8512427,10.366719 c 0.074132,2.918692 2.6208477,4.647263 4.9812363,5.991252 1.334585,0.490328 2.537749,0.356149 3.911266,0.191143 0.848558,-1.699925 0.493859,-3.106596 -0.250679,-4.786593 C 15.029105,11.107134 14.913259,10.425682 14.81096,9.6581563 14.275642,10.147176 14.555695,10.950459 14.543067,11.640936 14.222951,10.467948 13.480389,9.4959664 12.832008,8.4782114 12.350088,6.7052732 10.560353,5.620551 9.1356003,4.5718641 11.47346,8.1496612 12.028979,8.3323885 11.031856,12.611035 8.8831931,13.374443 7.5122244,12.310858 6.8512427,10.366719 z"
     id="path27337"
     style="fill:url(#radialGradient7065);fill-opacity:1;fill-rule:evenodd;stroke:url(#linearGradient7067);stroke-width:0.50976694;stroke-linecap:butt;stroke-linejoin:miter;stroke-miterlimit:4;stroke-opacity:1;stroke-dasharray:none;display:inline" />
  <path
     d="m 5.2442302,8.0316908 c 0.4886853,1.9941882 1.8185428,3.6182152 3.6081344,4.3913512 0.8012731,0.181964 1.5997934,0.357151 2.2444784,0.153507 -0.152716,-1.268182 0.103813,-2.47889 0.205878,-3.8659046 0.05274,-1.195559 0.109938,-2.2559635 -0.545939,-3.2362866 C 9.7468157,4.013985 8.4388243,3.4642339 6.9170791,3.5675977 6.5465199,4.1219227 6.1752409,4.5850496 5.8937591,5.0616921 5.4251255,5.8552485 5.0630008,7.1828774 5.6523091,8.0379692 6.2321342,8.618973 6.9918964,9.2329943 7.4410684,9.3042967 6.7598145,9.3540008 6.2987221,8.9824341 5.7425171,8.6167689 5.576421,8.4217435 5.4103262,8.2267162 5.2442302,8.0316908 z"
     id="path24402"
     style="fill:url(#linearGradient7060);fill-opacity:1;fill-rule:evenodd;stroke:url(#linearGradient7062);stroke-width:0.48846045;stroke-linecap:butt;stroke-linejoin:miter;stroke-miterlimit:4;stroke-opacity:1;stroke-dasharray:none;display:inline" />
  <path
     d="M 18.116441,19.401527 C 16.622353,18.230138 13.170077,14.972068 12.208007,13.825464 11.488978,12.968524 11.055941,12.763374 10.342656,12.941766 9.6899189,13.10502 9.5870134,13.065968 9.9965495,12.810409 10.317106,12.610385 10.570719,12.347725 10.560135,12.22672 10.549545,12.105717 9.9137055,11.024929 9.1471456,9.8249702 L 6.8120301,3.9924812 c 1.9713438,3.980637 4.2566209,7.5493658 4.6716529,7.0829998 0.197168,-0.221556 0.27026,-0.115636 0.2234,0.323741 -0.08522,0.799008 2.221259,3.47448 5.020717,5.823947 1.079861,0.906282 2.044704,1.911646 2.144095,2.234148 0.225501,0.73168 0.25138,0.733592 -0.755454,-0.05579 z"
     id="path24368-2"
     style="fill:#2a6a28;display:inline" />
</svg>

<?xml version="1.0" encoding="UTF-8" standalone="no"?>
<!-- Created with Inkscape (http://www.inkscape.org/) -->
<svg id="svg3386" xmlns="http://www.w3.org/2000/svg" height="24" width="24" version="1.0" xmlns:xlink="http://www.w3.org/1999/xlink">
 <defs id="defs3388">
  <linearGradient id="linearGradient5060">
   <stop id="stop5062" offset="0"/>
   <stop id="stop5064" style="stop-opacity:0" offset="1"/>
  </linearGradient>
  <linearGradient id="linearGradient2425" y2="5.4565" gradientUnits="userSpaceOnUse" x2="36.358" gradientTransform="matrix(.47785 0 0 .55248 .37225 -.076128)" y1="8.059" x1="32.892">
   <stop id="stop8591" style="stop-color:#fefefe" offset="0"/>
   <stop id="stop8593" style="stop-color:#cbcbcb" offset="1"/>
  </linearGradient>
  <linearGradient id="linearGradient2429" y2="46.017" gradientUnits="userSpaceOnUse" x2="24" gradientTransform="matrix(.45454 0 0 .46512 1.0909 .33723)" y1="2" x1="24">
   <stop id="stop3213" style="stop-color:#fff" offset="0"/>
   <stop id="stop3215" style="stop-color:#fff;stop-opacity:0" offset="1"/>
  </linearGradient>
  <radialGradient id="radialGradient2432" gradientUnits="userSpaceOnUse" cy="102.7" cx="92.09" gradientTransform="matrix(.17021 0 0 -.19072 1.1064 23.717)" r="139.56">
   <stop id="stop41" style="stop-color:#b7b8b9" offset="0"/>
   <stop id="stop47" style="stop-color:#ececec" offset=".17403"/>
   <stop id="stop49" style="stop-color:#fafafa;stop-opacity:0" offset=".23908"/>
   <stop id="stop51" style="stop-color:#fff;stop-opacity:0" offset=".30111"/>
   <stop id="stop53" style="stop-color:#fafafa;stop-opacity:0" offset=".53130"/>
   <stop id="stop55" style="stop-color:#ebecec;stop-opacity:0" offset=".84490"/>
   <stop id="stop57" style="stop-color:#e1e2e3;stop-opacity:0" offset="1"/>
  </radialGradient>
  <linearGradient id="linearGradient2435" y2="47.013" gradientUnits="userSpaceOnUse" x2="25.132" gradientTransform="matrix(.48572 0 0 .47803 .34283 -.70595)" y1=".98521" x1="25.132">
   <stop id="stop3602" style="stop-color:#f4f4f4" offset="0"/>
   <stop id="stop3604" style="stop-color:#dbdbdb" offset="1"/>
  </linearGradient>
  <linearGradient id="linearGradient2438" y2="2.9062" gradientUnits="userSpaceOnUse" x2="-51.786" gradientTransform="matrix(.39221 0 0 .44736 29.199 -1.2387)" y1="50.786" x1="-51.786">
   <stop id="stop3106" style="stop-color:#aaa" offset="0"/>
   <stop id="stop3108" style="stop-color:#c8c8c8" offset="1"/>
  </linearGradient>
  <radialGradient id="radialGradient2441" xlink:href="#linearGradient5060" gradientUnits="userSpaceOnUse" cy="486.65" cx="605.71" gradientTransform="matrix(.012049 0 0 .0082353 13.239 18.981)" r="117.14"/>
  <radialGradient id="radialGradient2444" xlink:href="#linearGradient5060" gradientUnits="userSpaceOnUse" cy="486.65" cx="605.71" gradientTransform="matrix(-.012049 0 0 .0082353 10.761 18.981)" r="117.14"/>
  <linearGradient id="linearGradient2447" y2="609.51" gradientUnits="userSpaceOnUse" x2="302.86" gradientTransform="matrix(.035207 0 0 .0082353 -.72485 18.981)" y1="366.65" x1="302.86">
   <stop id="stop5050" style="stop-opacity:0" offset="0"/>
   <stop id="stop5056" offset=".5"/>
   <stop id="stop5052" style="stop-opacity:0" offset="1"/>
  </linearGradient>
  <linearGradient id="linearGradient7060" y2="374.92" gradientUnits="userSpaceOnUse" x2="393.43" gradientTransform="matrix(.14454 -.025874 .024143 .15491 -55.073 -35.263)" y1="311.79" x1="375.63">
   <stop id="stop7178" style="stop-color:#204a87" offset="0"/>
   <stop id="stop7180" style="stop-color:#97bcd4" offset="1"/>
  </linearGradient>
  <linearGradient id="linearGradient7062" y2="21.767" gradientUnits="userSpaceOnUse" x2="20.404" gradientTransform="matrix(.62911 0 0 .67423 -3.0535 -1.6708)" y1="7.2514" x1="13.113">
   <stop id="stop7615" style="stop-color:#304456" offset="0"/>
   <stop id="stop7617" style="stop-color:#6394be" offset="1"/>
  </linearGradient>
  <radialGradient id="radialGradient7065" gradientUnits="userSpaceOnUse" cy="392.08" cx="416.65" gradientTransform="matrix(.17992 -.19211 .20315 .18250 -139.13 25.084)" r="27.077">
   <stop id="stop7210" style="stop-color:#fce94f" offset="0"/>
   <stop id="stop8189" style="stop-color:#66d09a" offset=".5"/>
   <stop id="stop8187" style="stop-color:#66c6d0" offset="1"/>
  </radialGradient>
  <linearGradient id="linearGradient7067" y2="15.299" gradientUnits="userSpaceOnUse" x2="27.56" gradientTransform="matrix(.68680 0 0 .67265 -4.3832 -1.6479)" y1="21.986" x1="32.027">
   <stop id="stop7607" style="stop-color:#bcae3e" offset="0"/>
   <stop id="stop7609" style="stop-color:#3b9a6a" offset=".5"/>
   <stop id="stop7611" style="stop-color:#3d8891" offset="1"/>
  </linearGradient>
  <radialGradient id="radialGradient2907" gradientUnits="userSpaceOnUse" cy="399.14" cx="416.8" gradientTransform="matrix(-.24384 -.041125 .018535 -.10542 111.07 77.083)" r="20.131">
   <stop id="stop9170" style="stop-color:#8ae234" offset="0"/>
   <stop id="stop9166" style="stop-color:#4db07d;stop-opacity:.88235" offset="1"/>
  </radialGradient>
 </defs>
 <rect id="rect2879" style="opacity:.15;fill:url(#linearGradient2447)" height="2" width="17" y="22" x="3.5"/>
 <path id="path2881" style="opacity:.15;fill:url(#radialGradient2444)" d="m3.5 22v1.9999c-0.6205 0.004-1.5-0.448-1.5-1s0.6924-1 1.5-1z"/>
 <path id="path2883" style="opacity:.15;fill:url(#radialGradient2441)" d="m20.5 22v1.9999c0.62047 0.0038 1.5-0.44807 1.5-1.0001 0-0.552-0.6924-0.99982-1.5-0.99982z"/>
 <path id="path4160" style="stroke-linejoin:round;stroke:url(#linearGradient2438);stroke-width:.99992;fill:url(#linearGradient2435)" d="m3.5 0.49996h11.5c0.683 0.2373 4.541 3.1281 5.5 5 0 5.7292 0.000039 11.271 0.000039 17h-17v-22z"/>
 <path id="path4191" style="fill:url(#radialGradient2432)" d="m4.1702 22c-0.0938 0-0.1702-0.086-0.1702-0.191v-20.598c0-0.105 0.0764-0.1905 0.1702-0.1905 3.5215 0.0527 7.4238-0.07883 10.941 0.0131l4.839 4.3272 0.05 16.448c0 0.105-0.076 0.191-0.17 0.191h-15.66z"/>
 <path id="path2435" style="opacity:.6;stroke:url(#linearGradient2429);fill:none" d="m19.5 5.677v15.823h-15v-20h10.394"/>
 <path id="path3370" style="opacity:.2;fill-rule:evenodd" d="m14.075 1c1.1563 0.32877 0.33906 4.6144 0.33906 4.6144s4.5154-0.42774 5.6077 1.195c1.489 2.2122-0.068-0.6352-0.173-0.8217-0.756-1.3401-3.867-4.5471-5.046-4.9412-0.088-0.0295-0.283-0.0465-0.728-0.0465z"/>
 <path id="path4474" style="fill:url(#linearGradient2425);fill-rule:evenodd" d="m14 1c1.5262 0 1 4 1 4s4.9921-0.45326 4.9921 2c0-0.59774 0.05575-1.4784-0.06407-1.6559-0.839-1.243-3.744-3.8619-4.798-4.2976-0.086-0.0356-0.686-0.0465-1.13-0.0465z"/>
 <path id="path8191" style="fill-rule:evenodd;stroke:#4b8748;stroke-width:.50977;fill:url(#radialGradient2907)" d="m11.255 16.18c1.0239 1.2872 2.3397 1.4853 3.9384 1.4663l-0.32901 0.74382c0.30638-0.35842 0.53476-0.74787 1.0413-0.698-0.31339 0.44167-0.36486 0.72746-0.48345 1.0532 0.60622-0.53579 1.5566-0.71973 2.3233-0.93454-0.20395-0.30487-0.51391-0.52498-0.71786-0.82986 0.35477-0.5925 0.5061-1.3953 0.5353-2.1063-0.13724 0.37044-0.3387 0.6671-0.529 0.92823 0.38805-0.94388-0.53801-1.9293-0.86762-2.717 0.03598 0.37294-0.19873 0.8361 0.28837 1.3895-0.3059 1.0985-0.20569 1.3191-0.88134 1.9868-1.1151 0.27143-2.8238 0.51657-4.3184-0.28211z"/>
 <path id="path27337" style="fill-rule:evenodd;stroke:url(#linearGradient7067);stroke-width:.50977;fill:url(#radialGradient7065)" d="m6.8512 10.367c0.074132 2.9187 2.6208 4.6473 4.9812 5.9913 1.3346 0.49033 2.5377 0.35615 3.9113 0.19114 0.84856-1.6999 0.49386-3.1066-0.25068-4.7866-0.464-0.656-0.58-1.337-0.682-2.1048-0.535 0.4888-0.255 1.2918-0.268 1.9828-0.32-1.173-1.063-2.145-1.711-3.1628-0.482-1.7729-2.272-2.8576-3.6964-3.9063 2.3374 3.5778 2.8934 3.7605 1.8964 8.0391-2.1488 0.763-3.5198-0.3-4.1808-2.244z"/>
 <path id="path24402" style="fill-rule:evenodd;stroke:url(#linearGradient7062);stroke-width:.48846;fill:url(#linearGradient7060)" d="m5.2442 8.0317c0.48869 1.9942 1.8185 3.6182 3.6081 4.3914 0.80127 0.18196 1.5998 0.35715 2.2445 0.15351-0.15272-1.2682 0.10381-2.4789 0.20588-3.8659 0.05274-1.1956 0.10994-2.256-0.54594-3.2363-1.0102-1.4604-2.3182-2.0102-3.8399-1.9068-0.3706 0.5543-0.7419 1.0174-1.0233 1.4941-0.4687 0.7935-0.8308 2.1212-0.2415 2.9763 0.5798 0.581 1.3396 1.195 1.7888 1.2663-0.6813 0.0497-1.1424-0.3219-1.6986-0.6875-0.1661-0.1951-0.3322-0.3901-0.4983-0.5851z"/>
 <path id="path24368-2" style="fill:#2a6a28" d="m18.116 19.402c-1.494-1.172-4.946-4.43-5.908-5.577-0.719-0.856-1.152-1.062-1.865-0.883-0.6531 0.163-0.756 0.124-0.3465-0.132 0.3205-0.2 0.5745-0.462 0.5635-0.583-0.01-0.121-0.6463-1.202-1.4129-2.402l-2.3351-5.8325c1.9713 3.9806 4.2566 7.5494 4.6717 7.083 0.19717-0.22156 0.27026-0.11564 0.2234 0.32374-0.08522 0.79901 2.2213 3.4745 5.0207 5.8239 1.0799 0.90628 2.0447 1.9116 2.1441 2.2341 0.2255 0.73168 0.25138 0.73359-0.75545-0.05579z"/>
</svg>
